X: 1
T: The Duchess Tree
T: 8x32S3C - Drewry
R: strathspey
C: J. Scott Skinner, via B. McOwen
C: Arr. T. Traub 7-9-03
M: 4/4
L: 1/4
K: A
R: strathspey
A/>B/|"A"c c c B/c/|"Bm"d F "E"F G/F/|"A"E A "F#m"e c|"Bm"c B-"E"B A/>B/|"A" c c c B/c/|"Bm"d F "E"F G/F/|"A"E/F/G/A/ "E"c B |"A"A3 ||
B/>c/|"E"d d d A/>B/|"A"c c c A/>F/|"A"E A "F#m"e c|"Bm"c B-"E"B A/>B/|"A"c c "(C#)"c B/c/|"Bm/D"d F "E"F G/F/|"A"E/F/G/A/ "E"c B |"A"A3 |]
